X: 1
T:Five Mile Chase, The
M:4/4
L:1/8
K:G
B|G2BG dGBG|FADA FADA|G2BG dGBd|egfa gedB|!
G2BG dGBG|FADA FADA|G2BG dGBd|egfa g3:|!
f|gd (3Bcd) ed (3Bcd)|gabg fgaf|gd (3Bcd) ed (3Bcd)|gabf g3f|!
gabg fgaf|e3d BABd|e3f edBd|edfD ged:|!
